X: 7825
T:Sl\"angpolska
R:Sl\"angpolska
M:3/4
L:1/8
O:Sweden
Z:John Chambers <jc@eddie.mit.edu>
K:G
G>A Bd ce | ed/2c/2 d4 | d2 ge ed | dc B3 A |\
G>A Bd ce | ed/2c/2 d4 | d2 ge ed | dc B3A :|
|: c | \
d2d2g2 | =f>e fg d2 | dc B2 Bd | c>B ce d2 |\
d2G2B2 | e2d4 | dc/2B/2 A2 dB | G2G4:|
